communes/906.svg

<?xml version="1.0" encoding="UTF-8" standalone="no"?>
<svg
   xmlns:dc="http://purl.org/dc/elements/1.1/"
   xmlns:cc="http://web.resource.org/cc/"
   xmlns:rdf="http://www.w3.org/1999/02/22-rdf-syntax-ns#"
   xmlns:svg="http://www.w3.org/2000/svg"
   xmlns="http://www.w3.org/2000/svg"
   xmlns:xlink="http://www.w3.org/1999/xlink"
   xmlns:sodipodi="http://sodipodi.sourceforge.net/DTD/sodipodi-0.dtd"
   xmlns:inkscape="http://www.inkscape.org/namespaces/inkscape"
   height="763"
   width="603"
   version="1.0"
   id="svg20"
   sodipodi:version="0.32"
   inkscape:version="0.44.1"
   sodipodi:docname="Schangnau-coat of arms.svg"
   sodipodi:docbase="F:\Mis Documentos\Mis imágenes\Encyclopédie\Escudos de Suiza">
  <metadata
     id="metadata31">
    <rdf:RDF>
      <cc:Work
         rdf:about="">
        <dc:format>image/svg+xml</dc:format>
        <dc:type
           rdf:resource="http://purl.org/dc/dcmitype/StillImage" />
        <dc:date>07-AUG-2006</dc:date>
        <dc:creator>
          <cc:Agent>
            <dc:title>Jérôme BLUM (wagner51)</dc:title>
          </cc:Agent>
        </dc:creator>
        <cc:license
           rdf:resource="http://creativecommons.org/licenses/GPL/2.0/" />
        <dc:coverage />
        <dc:description>Gabarit pour le Projet:Blasons de WIkipédia</dc:description>
        <dc:subject>
          <rdf:Bag>
            <rdf:li>blason suisse modèle gabarit projet blasons</rdf:li>
          </rdf:Bag>
        </dc:subject>
        <dc:language>fr</dc:language>
        <dc:title>Gabrit d'un blason suisse</dc:title>
      </cc:Work>
      <cc:License
         rdf:about="http://creativecommons.org/licenses/GPL/2.0/">
        <cc:permits
           rdf:resource="http://web.resource.org/cc/Reproduction" />
        <cc:permits
           rdf:resource="http://web.resource.org/cc/Distribution" />
        <cc:requires
           rdf:resource="http://web.resource.org/cc/Notice" />
        <cc:permits
           rdf:resource="http://web.resource.org/cc/DerivativeWorks" />
        <cc:requires
           rdf:resource="http://web.resource.org/cc/ShareAlike" />
        <cc:requires
           rdf:resource="http://web.resource.org/cc/SourceCode" />
      </cc:License>
    </rdf:RDF>
  </metadata>
  <defs
     id="defs29">
    <linearGradient
       id="linearGradient2893">
      <stop
         style="stop-color:#ffffff;stop-opacity:0.3137255;"
         offset="0"
         id="stop2895" />
      <stop
         id="stop2897"
         offset="0.19"
         style="stop-color:#ffffff;stop-opacity:0.25098041;" />
      <stop
         style="stop-color:#6b6b6b;stop-opacity:0.1254902;"
         offset="0.60000002"
         id="stop2901" />
      <stop
         style="stop-color:#000000;stop-opacity:0.1254902;"
         offset="1"
         id="stop2899" />
    </linearGradient>
    <linearGradient
       id="linearGradient2955">
      <stop
         style="stop-color:white;stop-opacity:0;"
         offset="0"
         id="stop2965" />
      <stop
         style="stop-color:black;stop-opacity:0.64583331;"
         offset="1"
         id="stop2959" />
    </linearGradient>
    <radialGradient
       inkscape:collect="always"
       xlink:href="#linearGradient2893"
       id="radialGradient3236"
       gradientUnits="userSpaceOnUse"
       gradientTransform="matrix(1.215027,1.531577e-24,1.464684e-23,1.266667,-839.1924,-490.4894)"
       cx="858.04236"
       cy="579.93323"
       fx="858.04236"
       fy="579.93323"
       r="300" />
  </defs>
  <sodipodi:namedview
     inkscape:window-height="682"
     inkscape:window-width="1024"
     inkscape:pageshadow="2"
     inkscape:pageopacity="0.0"
     guidetolerance="10.0"
     gridtolerance="10.0"
     objecttolerance="10.0"
     borderopacity="1.0"
     bordercolor="#666666"
     pagecolor="#ffffff"
     id="base"
     inkscape:zoom="0.48301887"
     inkscape:cx="511.99207"
     inkscape:cy="456.52384"
     inkscape:window-x="-4"
     inkscape:window-y="-4"
     inkscape:current-layer="layer2"
     showgrid="true" />
  <desc
     id="desc22">Coat of Arms of Canton of Freiburg (Fribourg)</desc>
  <g
     inkscape:groupmode="layer"
     id="layer1"
     inkscape:label="Fond écu"
     sodipodi:insensitive="true">
    <path
       id="path1899"
       d="M 1.5,1.49998 L 1.5,460.3679 C 1.5,626.6785 135.81456,761.5 301.49999,761.5 C 467.18543,761.5 601.5,626.6785 601.5,460.3679 L 601.5,1.49998 L 1.5,1.49998 z "
       style="fill:#e20909;fill-opacity:1" />
  </g>
  <g
     inkscape:groupmode="layer"
     id="layer2"
     inkscape:label="Meubles"
     sodipodi:insensitive="true">
    <path
       style="fill:white;fill-opacity:1;stroke:black;stroke-width:2.75000072;stroke-linecap:round;stroke-linejoin:round;stroke-miterlimit:4;stroke-dasharray:none;stroke-opacity:1"
       d="M 98.96875,338.03125 C 54.8847,337.96687 42.56272,363.81408 1.5,365.34375 L 1.5,400.34375 L 1.5,460.375 C 1.5039341,460.39512 1.4960495,460.41738 1.5,460.4375 C 1.5346334,460.61391 1.5578476,460.79245 1.59375,460.96875 C 42.37912,459.30607 60.72742,433.62268 104.6875,433.6875 C 150.1718,433.75459 151.74921,461.27903 196.0625,461.34375 C 240.37513,461.40921 252.04619,433.90101 297.53125,433.96875 C 343.01629,434.03649 364.59376,461.56235 408.90625,461.625 C 453.22034,461.69178 464.8906,434.21277 510.375,434.28125 C 549.7442,434.33866 569.7206,454.94187 601.5,460.53125 C 601.50003,460.47887 601.5,460.42738 601.5,460.375 L 601.5,400.34375 L 601.5,366.1875 C 560.8734,364.33043 548.54655,338.69045 504.65625,338.625 C 459.17254,338.55717 447.4995,366.06622 403.1875,366 C 358.87357,365.93604 347.29746,338.41007 301.8125,338.34375 C 256.32756,338.27743 244.65638,365.75297 200.34375,365.6875 C 156.03046,365.6228 144.45305,338.09833 98.96875,338.03125 z "
       id="path1969" />
    <g
       id="g13669"
       transform="translate(0,10.60208)">
      <path
         sodipodi:nodetypes="csscccccsscc"
         id="path8336"
         d="M 326.09195,510.89456 C 326.09195,510.89456 321.34294,604.39579 326.09195,618.17619 C 337.22053,650.46856 369.34103,652.84966 392.07984,636.02166 C 414.4966,619.43199 490.83555,630.01504 434.46163,691.03169 C 419.96424,618.90987 372.13242,729.62013 321.39095,667.83453 C 326.30804,689.97264 325.94257,711.6305 299.28181,730.89792 C 280.80512,713.3943 279.17522,691.0773 280.78569,667.83453 C 248.42812,726.40802 184.00773,624.1842 173.15503,688.85566 C 128.41752,667.70664 144.361,628.82436 178.91809,623.86859 C 206.81107,619.86852 270.27345,680.44183 271.73265,614.9122 C 272.47524,581.56428 276.08465,509.80655 276.08465,509.80655 L 326.09195,510.89456 z "
         style="fill:#fcef3c;fill-opacity:1;fill-rule:evenodd;stroke:black;stroke-width:3;stroke-linecap:butt;stroke-linejoin:miter;stroke-miterlimit:4;stroke-dasharray:none;stroke-opacity:1" />
      <path
         sodipodi:nodetypes="ccccccccccccccccc"
         id="path9223"
         d="M 301.80682,523.95062 C 344.83708,595.52719 440.82754,640.82083 522.8982,565.99288 C 474.01675,571.16689 440.71975,538.9383 405.82446,510.54557 C 427.20825,513.76264 448.59203,512.00006 469.97586,496.40146 C 427.71107,475.82114 387.04813,453.31865 359.08116,415.58097 C 391.96737,422.006 408.49036,412.06784 424.32057,401.43686 C 381.02592,385.10454 352.69078,359.79649 338.40902,326.05639 C 363.55631,332.20117 372.99151,324.41519 390.41937,315.91534 C 342.07128,297.65512 312.83152,275.14873 299.21509,236.62839 C 282.74688,281.10471 264.30391,300.16946 209.75723,313.73932 C 228.7753,325.32175 246.75358,331.22293 268.46861,323.88037 C 242.36579,364.80801 210.10147,387.25105 175.33105,402.17588 C 202.44297,414.20274 219.86221,421.38621 240.91941,415.58097 C 213.49781,448.7556 180.97665,474.7909 139.0778,487.69741 C 158.27623,498.86207 179.33343,507.86163 204.31721,501.84152 C 172.7523,539.63217 128.95692,556.45635 77.10242,559.46485 C 153.3416,617.18807 248.08686,612.00695 301.80682,523.95062 z "
         style="fill:#5ab532;fill-opacity:1;fill-rule:evenodd;stroke:black;stroke-width:3;stroke-linecap:butt;stroke-linejoin:miter;stroke-miterlimit:4;stroke-dasharray:none;stroke-opacity:1" />
    </g>
    <path
       sodipodi:type="star"
       style="opacity:1;fill:#fcef3c;fill-opacity:1;fill-rule:evenodd;stroke:black;stroke-width:4.03711462;stroke-linecap:round;stroke-linejoin:round;stroke-miterlimit:4;stroke-dasharray:none;stroke-opacity:1"
       id="path11895"
       sodipodi:sides="6"
       sodipodi:cx="48.309757"
       sodipodi:cy="93.983078"
       sodipodi:r1="152.90207"
       sodipodi:r2="76.451035"
       sodipodi:arg1="0.5322095"
       sodipodi:arg2="1.0558083"
       inkscape:flatsided="false"
       inkscape:rounded="0"
       inkscape:randomized="0"
       d="M 180.06363,171.57147 L 85.963759,160.51831 L 46.993176,246.87948 L 9.515559,159.86002 L -84.760701,169.29109 L -28.138443,93.324785 L -83.444119,16.394685 L 10.655755,27.447848 L 49.626339,-58.913323 L 87.103955,28.106141 L 181.38022,18.675071 L 124.75796,94.641371 L 180.06363,171.57147 z "
       transform="matrix(0.740149,-1.237955e-2,1.237955e-2,0.740149,73.08014,144.3599)" />
    <path
       transform="matrix(0.740211,-7.929759e-3,7.929759e-3,0.740211,453.4955,144.1355)"
       d="M 180.06363,171.57147 L 85.963759,160.51831 L 46.993176,246.87948 L 9.515559,159.86002 L -84.760701,169.29109 L -28.138443,93.324785 L -83.444119,16.394685 L 10.655755,27.447848 L 49.626339,-58.913323 L 87.103955,28.106141 L 181.38022,18.675071 L 124.75796,94.641371 L 180.06363,171.57147 z "
       inkscape:randomized="0"
       inkscape:rounded="0"
       inkscape:flatsided="false"
       sodipodi:arg2="1.0558083"
       sodipodi:arg1="0.5322095"
       sodipodi:r2="76.451035"
       sodipodi:r1="152.90207"
       sodipodi:cy="93.983078"
       sodipodi:cx="48.309757"
       sodipodi:sides="6"
       id="path13673"
       style="opacity:1;fill:#fcef3c;fill-opacity:1;fill-rule:evenodd;stroke:black;stroke-width:4.03711462;stroke-linecap:round;stroke-linejoin:round;stroke-miterlimit:4;stroke-dasharray:none;stroke-opacity:1"
       sodipodi:type="star" />
    <path
       sodipodi:type="star"
       style="opacity:1;fill:#fcef3c;fill-opacity:1;fill-rule:evenodd;stroke:black;stroke-width:4.03711462;stroke-linecap:round;stroke-linejoin:round;stroke-miterlimit:4;stroke-dasharray:none;stroke-opacity:1"
       id="path13675"
       sodipodi:sides="6"
       sodipodi:cx="48.309757"
       sodipodi:cy="93.983078"
       sodipodi:r1="152.90207"
       sodipodi:r2="76.451035"
       sodipodi:arg1="0.5322095"
       sodipodi:arg2="1.0558083"
       inkscape:flatsided="false"
       inkscape:rounded="0"
       inkscape:randomized="0"
       d="M 180.06363,171.57147 L 85.963759,160.51831 L 46.993176,246.87948 L 9.515559,159.86002 L -84.760701,169.29109 L -28.138443,93.324785 L -83.444119,16.394685 L 10.655755,27.447848 L 49.626339,-58.913323 L 87.103955,28.106141 L 181.38022,18.675071 L 124.75796,94.641371 L 180.06363,171.57147 z "
       transform="matrix(0.740253,0,0,0.740253,264.2386,48.75248)" />
  </g>
  <g
     inkscape:groupmode="layer"
     id="layer3"
     inkscape:label="Reflet final"
     style="display:inline"
     sodipodi:insensitive="true">
    <path
       style="fill:url(#radialGradient3236);fill-opacity:1"
       d="M 1.5,1.5 L 1.5,460.3679 C 1.5,626.67854 135.81454,761.5 301.49993,761.5 C 467.1854,761.5 601.5,626.67854 601.5,460.3679 L 601.5,1.5 L 1.5,1.5 z "
       id="path2346" />
  </g>
  <g
     inkscape:groupmode="layer"
     id="layer4"
     inkscape:label="Contour final"
     style="display:inline"
     sodipodi:insensitive="true">
    <path
       style="fill:none;fill-opacity:1;stroke:black;stroke-width:3;stroke-miterlimit:4;stroke-dasharray:none;stroke-opacity:1"
       d="M 1.5,1.5 L 1.5,460.36794 C 1.5,626.67854 135.81454,761.5 301.49993,761.5 C 467.1854,761.5 601.5,626.67854 601.5,460.36794 L 601.5,1.5 L 1.5,1.5 z "
       id="path3239" />
  </g>
</svg>

<?xml version="1.0" encoding="UTF-8"?>
<svg version="1.0" viewBox="0 0 603 763" xmlns="http://www.w3.org/2000/svg" xmlns:cc="http://web.resource.org/cc/" xmlns:dc="http://purl.org/dc/elements/1.1/" xmlns:rdf="http://www.w3.org/1999/02/22-rdf-syntax-ns#" xmlns:xlink="http://www.w3.org/1999/xlink">
<metadata>
<rdf:RDF>
<cc:Work rdf:about="">
<dc:format>image/svg+xml</dc:format>
<dc:type rdf:resource="http://purl.org/dc/dcmitype/StillImage"/>
<dc:date>07-AUG-2006</dc:date>
<dc:creator>
<cc:Agent>
<dc:title>Jérôme BLUM (wagner51)</dc:title>
</cc:Agent>
</dc:creator>
<cc:license rdf:resource="http://creativecommons.org/licenses/GPL/2.0/"/>
<dc:coverage/>
<dc:description>Gabarit pour le Projet:Blasons de WIkipédia</dc:description>
<dc:subject>
<rdf:Bag>
<rdf:li>blason suisse modèle gabarit projet blasons</rdf:li>
</rdf:Bag>
</dc:subject>
<dc:language>fr</dc:language>
<dc:title>Gabrit d'un blason suisse</dc:title>
</cc:Work>
<cc:License rdf:about="http://creativecommons.org/licenses/GPL/2.0/">
<cc:permits rdf:resource="http://web.resource.org/cc/Reproduction"/>
<cc:permits rdf:resource="http://web.resource.org/cc/Distribution"/>
<cc:requires rdf:resource="http://web.resource.org/cc/Notice"/>
<cc:permits rdf:resource="http://web.resource.org/cc/DerivativeWorks"/>
<cc:requires rdf:resource="http://web.resource.org/cc/ShareAlike"/>
<cc:requires rdf:resource="http://web.resource.org/cc/SourceCode"/>
</cc:License>
</rdf:RDF>
</metadata>
<defs>
<radialGradient id="a" cx="858.04" cy="579.93" r="300" gradientTransform="matrix(1.215 1.5316e-24 1.4647e-23 1.2667 -839.19 -490.49)" gradientUnits="userSpaceOnUse">
<stop stop-color="#fff" stop-opacity=".31373" offset="0"/>
<stop stop-color="#fff" stop-opacity=".25098" offset=".19"/>
<stop stop-color="#6b6b6b" stop-opacity=".12549" offset=".6"/>
<stop stop-opacity=".12549" offset="1"/>
</radialGradient>
</defs>
<desc>Coat of Arms of Canton of Freiburg (Fribourg)</desc>
<path d="m1.5 1.5v458.87c0 166.31 134.31 301.13 300 301.13 165.69 0 300-134.82 300-301.13v-458.87h-600z" fill="#e20909"/>
<g stroke="#000">
<path d="m98.969 338.03c-44.084-0.06438-56.406 25.783-97.469 27.312v35 60.031c0.0039341 0.02012-0.0039505 0.04238 0 0.0625 0.034633 0.17641 0.057848 0.35495 0.09375 0.53125 40.785-1.6627 59.134-27.346 103.09-27.281 45.484 0.06709 47.062 27.592 91.375 27.656 44.313 0.06546 55.984-27.443 101.47-27.375 45.485 0.06774 67.063 27.594 111.38 27.656 44.314 0.06678 55.984-27.412 101.47-27.344 39.369 0.05741 59.346 20.661 91.125 26.25 3e-5 -0.05238 0-0.10387 0-0.15625v-60.031-34.156c-40.627-1.8571-52.953-27.497-96.844-27.562-45.484-0.06783-57.157 27.441-101.47 27.375-44.314-0.06396-55.89-27.59-101.38-27.656-45.485-0.06632-57.156 27.409-101.47 27.344-44.313-0.0647-55.891-27.589-101.38-27.656z" fill="#fff" stroke-linecap="round" stroke-linejoin="round" stroke-width="2.75"/>
<g transform="translate(0 10.602)" fill-rule="evenodd" stroke-width="3">
<path d="m326.09 510.89s-4.749 93.501 0 107.28c11.129 32.292 43.249 34.673 65.988 17.845 22.417-16.59 98.756-6.0066 42.382 55.01-14.497-72.122-62.329 38.588-113.07-23.197 4.9171 22.138 4.5516 43.796-22.109 63.063-18.477-17.504-20.107-39.821-18.496-63.063-32.358 58.573-96.778-43.65-107.63 21.021-44.738-21.149-28.794-60.031 5.7631-64.987 27.893-4.0001 91.355 56.573 92.815-8.9564 0.74259-33.348 4.352-105.11 4.352-105.11l50.007 1.088z" fill="#fcef3c"/>
<path d="m301.81 523.95c43.03 71.577 139.02 116.87 221.09 42.042-48.881 5.174-82.178-27.055-117.07-55.447 21.384 3.2171 42.768 1.4545 64.151-14.144-42.265-20.58-82.928-43.083-110.89-80.82 32.886 6.425 49.409-3.5131 65.239-14.144-43.295-16.332-71.63-41.64-85.912-75.38 25.147 6.1448 34.582-1.6412 52.01-10.141-48.348-18.26-77.588-40.767-91.204-79.287-16.468 44.476-34.911 63.541-89.458 77.111 19.018 11.582 36.996 17.484 58.711 10.141-26.103 40.928-58.367 63.371-93.138 78.296 27.112 12.027 44.531 19.21 65.588 13.405-27.422 33.175-59.943 59.21-101.84 72.116 19.198 11.165 40.256 20.164 65.239 14.144-31.565 37.791-75.36 54.615-127.21 57.623 76.239 57.723 170.98 52.542 224.7-35.514z" fill="#5ab532"/>
</g>
<path transform="matrix(.74015 -.01238 .01238 .74015 73.08 144.36)" d="m180.06 171.57-94.1-11.053-38.971 86.361-37.478-87.019-94.276 9.4311 56.622-75.966-55.306-76.93 94.1 11.053 38.971-86.361 37.478 87.019 94.276-9.4311-56.622 75.966 55.306 76.93z" fill="#fcef3c" fill-rule="evenodd" stroke-linecap="round" stroke-linejoin="round" stroke-width="4.0371"/>
<path transform="matrix(.74021 -.0079298 .0079298 .74021 453.5 144.14)" d="m180.06 171.57-94.1-11.053-38.971 86.361-37.478-87.019-94.276 9.4311 56.622-75.966-55.306-76.93 94.1 11.053 38.971-86.361 37.478 87.019 94.276-9.4311-56.622 75.966 55.306 76.93z" fill="#fcef3c" fill-rule="evenodd" stroke-linecap="round" stroke-linejoin="round" stroke-width="4.0371"/>
<path transform="matrix(.74025 0 0 .74025 264.24 48.752)" d="m180.06 171.57-94.1-11.053-38.971 86.361-37.478-87.019-94.276 9.4311 56.622-75.966-55.306-76.93 94.1 11.053 38.971-86.361 37.478 87.019 94.276-9.4311-56.622 75.966 55.306 76.93z" fill="#fcef3c" fill-rule="evenodd" stroke-linecap="round" stroke-linejoin="round" stroke-width="4.0371"/>
</g>
<g>
<path d="m1.5 1.5v458.87c0 166.31 134.31 301.13 300 301.13 165.69 0 300-134.82 300-301.13v-458.87h-600z" fill="url(#a)"/>
<path d="m1.5 1.5v458.87c0 166.31 134.31 301.13 300 301.13 165.69 0 300-134.82 300-301.13v-458.87h-600z" fill="none" stroke="#000" stroke-width="3"/>
</g>
</svg>
